X: 31486
T: Paddy Whack
R: jig
M: 6/8
K: Gmajor
|:G|GBd g>fg|edc cBA|GBd e>fg|fdd d2 f|
gbg afd|c>de dBG|GAB cAd|BGG G2:|
|:c|BGB c>de|dBG A2 G|GBd e>fg|fdd (d2 e/f/)|
gbg afd|c>de dBG|G>AB cAd|BGG G2:|

